!!!!SEGMENT: pl-wtm--r-2309--001-005_troschel-wilhelm--msza-agnus-dei.krn
!!!cenid: 18xx:2272
!!!COM: Troschel, Wilhelm
!!!COM-rismID: pe30024099
!!!CDT: 1823/08/23-1887/03/02
!!!CNT: Polish
!!!OPR: Msza
!!!OTL: Agnus Dei
!!!OMV: 005
!!!PDT: 1853
!!!AGN: Sacred; Mass
!!!SMS-siglum: PL-Wtm
!!!SMS-shelfmark: R 2309
!!!SMS-shelfwork: 001-005 M
!!!SMS-variant:
!!!SMS-altvar:
!!!NIFC-rismSourceID: 1001114147
!!!NIFC-rismChildID: 1001114147
!!!NIFC-islandoraID: pl-wtm:30283
!!!URL-pdf-islandora: https://repozytorium.nifc.pl/islandora/object/pl-wtm%3A30283/datastream/PDF/view
!!!URL-scan: https://polish.musicsources.pl/pl/lokalizacje/galeria/rekopisy/6620 @EN{Scan on Polish Music Sources Website} @PL{Skany w portalu Dziedzictwo Muzyki Polskiej w otwartym dostępie}
!!!IIIF:
!!!ONB-nifc: UWAGA: części Mszy: 1. Kyrie, 2. Gloria, 3. Credo, 4. Benedictus, 5. Agnus Dei
!!!AIN: 1 alto 1 empty 1 piano
!!!key:
**kern	**kern	**dynam	**kern	**text	**dynam
*part3	*part2	*part2	*part1	*part1	*part1
*staff3	*staff2	*	*staff1	*staff1	*
*Iempty	*Ipiano	*	*Ialto	*	*
*	*I"Piano	*	*I"[Alt Solo]	*	*
*clefF4	*clefG2	*	*clefG2	*	*
*k[b-e-a-]	*k[b-e-a-]	*	*k[b-e-a-]	*	*
*c:	*c:	*	*c:	*	*
*M4/4	*M4/4	*	*M4/4	*	*
*met(c)	*met(c)	*	*met(c)	*	*
=1	=1	=1	=1	=1	=1
*2\right	*2\right	*	*	*	*
*^	*^	*	*	*	*
!	!	!	!	!	!LO:TX:t=P:problem=t.1-6 ukryte	!	!
!LO:TX:t=P:2/left:problem	!	!	!	!	!	!	!
!LO:TX:t=P:problem=all\right&colon; global	!	!LO:TX:t=P:problem=all\right&colon; global	!	!	!LO:TX:a:t=Adagio	!	!
2c/	2c\	2g/	2e-\	p	1ryy	.	.
2c/	2c\	2g/	2e-\	.	.	.	.
=2	=2	=2	=2	=2	=2	=2	=2
!	!	!	!	!LO:HP:a	!	!	!
2Bn\ 2d	2ryy	2a-/	2f\	<	1ryy	.	.
4d/	4B-X\	4a-/	4f\	.	.	.	.
4d/	4An\	4an/	4f\	.	.	.	.
=3	=3	=3	=3	=3	=3	=3	=3
2A-X\ 2d	2ryy	2b-/	2f\	[	1ryy	.	.
4d/	4G\	4bn/	4f\	.	.	.	.
4d/	4F\	4b/	4g\	.	.	.	.
=4	=4	=4	=4	=4	=4	=4	=4
2c/	2E-\	2cc/	2g\	.	1ryy	.	.
2c/	2F\	4b-X/	4g\	.	.	.	.
.	.	4a-/	4f\	.	.	.	.
=5	=5	=5	=5	=5	=5	=5	=5
!	!	!	!	!LO:HP:a	!	!	!
1c	2G\	2g/	1e-	>	1ryy	.	.
.	2G-X\	2a-/	.	.	.	.	.
*v	*v	*	*	*	*	*	*
*	*v	*v	*	*	*	*
=6	=6	=6	=6	=6	=6
1G;< 1Bn	1d; 1g	]	1ryy	.	.
!!LO:LB:g=original
=7	=7	=7	=7	=7	=7
!	!	!	!LO:TX:a:t=Alt Solo	!	!LO:DY:b
2E-\	8r	p	4.g/	Mi-	p
.	[8c/	.	.	.	.
.	4c/] 4g	.	.	.	.
.	.	.	(8g/	-se-	.
2E-\	8r	.	4g/	-re-	.
.	[8c/	.	.	.	.
.	4c/] 4g	.	8bn\L	-re	.
.	.	.	8cc\J	.	.
=8	=8	=8	=8	=8	=8
2F\	8r	.	4cc\)	no-	.
.	[8c/	.	.	.	.
.	4c/] 4d 4a-	.	8a-/L	.	.
.	.	.	8g/J	.	.
2F\	8r	.	2f/	-bis	.
.	[8c/	.	.	.	.
.	4c/] 4d 4a-	.	.	.	.
=9	=9	=9	=9	=9	=9
2G\	8r	.	(4.en/	mi-	.
.	[8c/	.	.	.	.
.	4c/] 4en 4b-	.	.	.	.
.	.	.	8e/	-se-	.
2G\	8r	.	4g/	-re-	.
.	[8c/	.	.	.	.
.	4c/] 4e 4b-	.	4cc\	-re	.
=10	=10	=10	=10	=10	=10
2A-\	8r	.	4cc\)	no-	.
.	[8c/	.	.	.	.
.	4c/] 4f 4cc	.	8a-/L	.	.
.	.	.	8g/J	.	.
2A-\	8r	.	4f/	-bis	.
.	[8c/	.	.	.	.
.	4c/] 4f 4cc	.	8cc\	mi-	.
!	!	!	!	!	!LO:DY:a
.	.	.	8cc\	-se-	<
=11	=11	=11	=11	=11	=11
2A-\	8r	.	4.cc\	-re-	.
.	[8c/	.	.	.	.
.	4c/] 4f	.	.	.	.
.	.	.	8cc\	-re	[
2A-\	8r	.	(4.dd\	no-	.
.	[8c/	.	.	.	.
.	4c/] 4f#X	.	.	.	.
.	.	.	8cc\)	.	.
!!LO:LB:g=original
=12	=12	=12	=12	=12	=12
2G\	8r	.	2bn\	-bis	.
.	[8Bn/	.	.	.	.
.	4B/] 4d 4g	.	.	.	.
*rep	*rep	*	*	*	*
2G\	8r	.	2r	.	.
.	[8B/	.	.	.	.
.	4B/] 4d 4g	.	.	.	.
*Xrep	*Xrep	*	*	*	*
=13	=13	=13	=13	=13	=13
!	!	!	!	!	!LO:DY:b
2F\	8r	.	4g/	A-	p
.	[8Bn/	.	.	.	.
.	4B/] 4d 4g	.	8Bn/L	-gnus	.
.	.	.	8d/J	.	.
2E-\	8r	.	4g/	De-	.
.	[8c/	.	.	.	.
.	.	.	16qqb-/LL	.	.
.	.	.	16qqa-/JJ	.	.
.	4c/] 4e- 4g	.	4g/	-i	.
=14	=14	=14	=14	=14	=14
2G-X\	8r	.	4a-/	a-	.
.	[8c/	.	.	.	.
.	4c/] 4e- 4a-	.	8c/L	-gnus	.
.	.	.	8e-/J	.	.
2F\	8r	.	4a-/	De-	.
.	[8d/	.	.	.	.
.	4d/] 4f 4a-	.	4a-/	-i	.
=15	=15	=15	=15	=15	=15
2E-\	8r	.	4an/	qui	.
.	[8c/	.	.	.	.
.	4c/] 4f 4an	.	8f/L	.	.
.	.	.	8a/J	.	.
2D\	8r	.	4b-/	tol-	.
.	[8d/	.	.	.	.
.	4d/] 4f 4b-	.	8f/	lis	.
.	.	.	8b-/	pec-	.
=16	=16	=16	=16	=16	=16
2F\	8r	.	4bn\	-ca-	.
.	[8d/	.	.	.	.
.	4d/] 4g 4bn	.	8g/L	-ta	.
.	.	.	8b/J	.	.
2E-\	8r	.	4cc\	mun-	.
.	[8e-/	.	.	.	.
.	4e-/] 4g 4cc	.	8g/L	-di	.
.	.	.	8cc/J	.	.
=17	=17	=17	=17	=17	=17
2F\	8r	.	4.dd-X\	mi-	.
.	[8d-X/	.	.	.	.
.	4d-/] 4a- 4dd-X	.	.	.	.
.	.	.	8dd-\	-se-	.
2F#X\	8r	.	4.cc\	-re-	.
.	[8e-/	.	.	.	.
.	4e-/] 4an 4cc	.	.	.	.
.	.	.	8cc\	-re	.
=18	=18	=18	=18	=18	=18
*^	*	*	*	*	*
!	!	!	!	!	!	!LO:DY:a
[2G\	2ryy	8r	.	4cc\	no-	>
.	.	8e-/L 8g 8cc	.	.	.	.
.	.	8dn/ 8f 8b-	.	8b-\L	.	.
.	.	8c/J 8e- 8a-X	.	8a-\J	.	]
2G/]	2GG;\	2Bn;/ 2d 2g	.	2g;/	-bis	.
!!LO:PB:g=original
=19	=19	=19	=19	=19	=19	=19
*	*	*^	*	*	*	*
!LO:TX:t=P:2\left:problem	!	!LO:TX:a:t=Chór	!LO:TX:t=P:2\left:problem	!	!LO:TX:t=P:problem=głos ukryty w t. 19-115	!	!
2c/	2c\	2g/	2e-\	p	1ryy	.	.
2c/	2c\	2g/	2e-\	.	.	.	.
=20	=20	=20	=20	=20	=20	=20	=20
2Bn\ 2d	2ryy	2f/ 2a-	2ryy	.	1ryy	.	.
4d/	4B-X\	4a-/	4f\	.	.	.	.
4d/	4An\	4an/	4f\	.	.	.	.
=21	=21	=21	=21	=21	=21	=21	=21
!	!	!	!	!LO:HP:a	!	!	!
2A-X\ 2d	2ryy	2b-/	2f\	<	1ryy	.	.
4d/	4G\	4bn/	4f\	.	.	.	.
4d/	4G\	4b/	4g\	.	.	.	.
=22	=22	=22	=22	=22	=22	=22	=22
2c/	2G\	2cc/	2g\	[	1ryy	.	.
2c/	2A-\	4b-X/	4g\	.	.	.	.
.	.	4a-/	4f\	.	.	.	.
*	*	*v	*v	*	*	*	*
=23	=23	=23	=23	=23	=23	=23
1c	2G\	2e-/ 2g	f	1ryy	.	.
.	2G-X\	2a-/	.	.	.	.
*v	*v	*	*	*	*	*
=24	=24	=24	=24	=24	=24
1G 1Bn	1d 1g	.	1ryy	.	.
=25	=25	=25	=25	=25	=25
*^	*^	*	*	*	*
2B-X/	2E-\	2g/	2d-X\	pp	1ryy	.	.
2B-/	2E-\	2g/	2e-\	.	.	.	.
!!LO:LB:g=original
=26	=26	=26	=26	=26	=26	=26	=26
2A-/	2AA-\	2a-/	2c\	.	1ryy	.	.
4c/	4A-\	4a-/	4e-\	.	.	.	.
!	!	!	!	!LO:HP:a	!	!	!
4c/	4A-\	4a-/	4e-\	<	.	.	.
=27	=27	=27	=27	=27	=27	=27	=27
2d-X/	2D-X\	2f/ 2a-	2ryy	.	1ryy	.	.
4d-/	4D-\	4a-/	4f\	.	.	.	.
4d-/	4D-\	4a-/	4f\	[	.	.	.
*	*	*v	*v	*	*	*	*
=28	=28	=28	=28	=28	=28	=28
2c/	2E-\	2e-/ 2a-	.	1ryy	.	.
2c/	2E-\	2e-/ 2a-	.	.	.	.
=29	=29	=29	=29	=29	=29	=29
*	*	*^	*	*	*	*
!	!	!	!	!LO:HP:a	!	!	!
1c	2F\	2a-/	2d\	>	1ryy	.	.
.	2F#X\	2an/	2e-\	.	.	.	.
*v	*v	*	*	*	*	*	*
*	*v	*v	*	*	*	*
=30	=30	=30	=30	=30	=30
1G;< 1Bn	1d; 1g	]	1ryy	.	.
=31	=31	=31	=31	=31	=31
*^	*^	*	*	*	*
8r	1G	8r	2g\	.	1ryy	.	.
8f/L	.	8dd/L	.	.	.	.	.
8en/	.	8cc#X/	.	.	.	.	.
8e-X/J	.	8ccn/J	.	.	.	.	.
!LO:TX:b:t=rall&colon;	!	!	!	!	!	!	!
4d/	.	8g/L 8bn	2ryy	.	.	.	.
.	.	8f/ 8an	.	.	.	.	.
4Bn/	.	8en/ 8g	.	.	.	.	.
.	.	8d/J 8f	.	.	.	.	.
*v	*v	*	*	*	*	*	*
*	*v	*v	*	*	*	*
=32||	=32||	=32||	=32||	=32||	=32||
*k[]	*k[]	*	*k[]	*	*
*M6/8	*M6/8	*	*M6/8	*	*
*^	*^	*	*	*	*
!	!	!LO:TX:a:t=Allegretto	!	!	!	!	!
4c/	4C\	4e/	4c\	f	2.ryy	.	.
8c/	8C\	8e/	8c\	.	.	.	.
4c/	4C\	4f/	4d\	.	.	.	.
8c/	8C\	8f#X/	8d#X\	.	.	.	.
*v	*v	*	*	*	*	*	*
!!LO:LB:g=original
=33	=33	=33	=33	=33	=33	=33
4.C\ 4.c	4.g/	4.e\	.	2.ryy	.	.
4.C\ 4.c	4.g/	4.e\	.	.	.	.
*	*v	*v	*	*	*	*
=34	=34	=34	=34	=34	=34
4C\ 4c	4e/ 4g	.	2.ryy	.	.
8C\ 8c	8e/ 8g	.	.	.	.
4C\ 4c	4f/ 4a	.	.	.	.
8C\ 8c	8d/ 8b	.	.	.	.
=35	=35	=35	=35	=35	=35
4.C\ 4.c	4.e/ 4.cc	.	2.ryy	.	.
4.C\ 4.c	4.e/ 4.cc	.	.	.	.
=36	=36	=36	=36	=36	=36
4G\ 4d	4f/ 4cc	.	2.ryy	.	.
8G\ 8d	8f/ 8b	.	.	.	.
4G\ 4c	4f/ 4a	.	.	.	.
8G\ 8B	8f/ 8g	.	.	.	.
=37	=37	=37	=37	=37	=37
*	*^	*	*	*	*
4.C\ 4.c	4.g/	4.e\	.	2.ryy	.	.
4.C\ 4.c	4.e/	4.e\	.	.	.	.
=38	=38	=38	=38	=38	=38	=38
*^	*	*	*	*	*	*
4F\ 4c	4.ryy	4d/ 4a	4.ryy	.	2.ryy	.	.
8F\ 8c	.	8d/ 8a	.	.	.	.	.
4.B/	4.F\	4b/	4.d#X\	.	.	.	.
.	.	8a/	.	.	.	.	.
*	*	*v	*v	*	*	*	*
=39	=39	=39	=39	=39	=39	=39
2.B/	2.E\	2.e/ 2.g#X	.	2.ryy	.	.
*v	*v	*	*	*	*	*
=40	=40	=40	=40	=40	=40
4G\ 4B	4d/ 4gn	.	2.ryy	.	.
8G\ 8B	8d/ 8g	.	.	.	.
4G\ 4d	4f/ 4b	.	.	.	.
8G\ 8c	8f/ 8a	.	.	.	.
!!LO:LB:g=original
=41	=41	=41	=41	=41	=41
4.G\ 4.c	4.f/ 4.a	.	2.ryy	.	.
4.G\ 4.B	4.f/ 4.g	.	.	.	.
=42	=42	=42	=42	=42	=42
4G\ 4d	4f/ 4b	.	2.ryy	.	.
8G\ 8d	8f/ 8b	.	.	.	.
4G\ 4B	4f/ 4dd	.	.	.	.
8G\ 8c	8f/ 8cc	.	.	.	.
=43	=43	=43	=43	=43	=43
4.G\ 4.d	4.f/ 4.cc	.	2.ryy	.	.
4.G\ 4.d	4.f/ 4.b	.	.	.	.
=44	=44	=44	=44	=44	=44
4C\ 4c	4c/ 4e	.	2.ryy	.	.
8C\ 8c	8c/ 8e	.	.	.	.
4C\ 4c	4d/ 4f	.	.	.	.
8C\ 8c	8d#X/ 8f#X	.	.	.	.
=45	=45	=45	=45	=45	=45
*	*^	*	*	*	*
4.C\ 4.c	4.g/	4.e\	.	2.ryy	.	.
4.C\ 4.c	4.e/ 4.g	4.ryy	.	.	.	.
*	*v	*v	*	*	*	*
=46	=46	=46	=46	=46	=46
4C\ 4c	4e/ 4g	.	2.ryy	.	.
8C\ 8c	8e/ 8g	.	.	.	.
4C\ 4c	4f/ 4a	.	.	.	.
8C\ 8c	8d/ 8b	.	.	.	.
=47	=47	=47	=47	=47	=47
4.C\ 4.c	4.e/ 4.cc	.	2.ryy	.	.
4.C\ 4.c	4.e/ 4.cc	.	.	.	.
!!LO:LB:g=original
=48	=48	=48	=48	=48	=48
4A\ 4c	4f/ 4dd	.	2.ryy	.	.
8A\ 8c	8f/ 8cc	.	.	.	.
4G\ 4c	4f/ 4b	.	.	.	.
8F\ 8c	8f/ 8a	.	.	.	.
=49	=49	=49	=49	=49	=49
*^	*^	*	*	*	*
4.E\ 4.c	4.ryy	4.g/	[4.g\	.	2.ryy	.	.
4c/	4F\	4g/ 4b	4g\]	.	.	.	.
8F\ 8c	8ryy	8f/ 8a	8ryy	.	.	.	.
*v	*v	*	*	*	*	*	*
=50	=50	=50	=50	=50	=50	=50
4G\ 4c	4e/ 4g	4.ryy	.	2.ryy	.	.
8G\ 8c	8c/ 8e	.	.	.	.	.
4.G\ 4.B	8f/L	4.d\	.	.	.	.
.	8a/	.	.	.	.	.
.	8g/J	.	.	.	.	.
=51	=51	=51	=51	=51	=51	=51
*^	*	*	*	*	*	*
!	!	!	!LO:TX:t=P:2\left:problem	!	!	!	!
2.c/	2C\	2.e/	2.e\	.	2.ryy	.	.
.	8ryy	.	.	.	.	.	.
.	8ryy	.	.	.	.	.	.
*v	*v	*	*	*	*	*	*
=52	=52	=52	=52	=52	=52	=52
4G\ 4B	4d/	4d\	p	2.ryy	.	.
8G\ 8B	8d/ 8g	8ryy	.	.	.	.
4G\ 4c	4e/ 4b	4.ryy	.	.	.	.
8G\ 8c	8f#X/ 8a	.	.	.	.	.
=53	=53	=53	=53	=53	=53	=53
*^	*	*	*	*	*	*
4.B/	4.G\	4.g/	4.g\	.	2.ryy	.	.
4d/	4D\	4a/	4f#X\	.	.	.	.
8ryy	8ryy	8ryy	8ryy	.	.	.	.
*v	*v	*	*	*	*	*	*
*	*v	*v	*	*	*	*
=54	=54	=54	=54	=54	=54
4G\ 4d	4g/ 4b	.	2.ryy	.	.
8G\ 8d#X	8g/ 8b	.	.	.	.
4G\ 4e	4g/ 4cc	.	.	.	.
8G\ 8dn	8g/ 8b	.	.	.	.
=55	=55	=55	=55	=55	=55
*^	*^	*	*	*	*
4d/	4.D\	4b/	4.f#X\	.	2.ryy	.	.
8c/	.	8a/	.	.	.	.	.
4B/	4G\	4.g/	4.g\	.	.	.	.
8ryy	8ryy	.	.	.	.	.	.
!!LO:PB:g=original
=56	=56	=56	=56	=56	=56	=56	=56
4E\ 4B	4.ryy	4e/ 4g#X	4.ryy	.	2.ryy	.	.
8E\ 8B	.	8e/ 8g#	.	.	.	.	.
8d/L	4E\	4g#/	8f\L	.	.	.	.
8c/	.	.	8e\	.	.	.	.
8B/J	8E\	8g#/	8d\J	.	.	.	.
=57	=57	=57	=57	=57	=57	=57	=57
4A/	4.A\	4.a/	4c\	.	2.ryy	.	.
8B/	.	.	8d\	.	.	.	.
4c/	4A\	4.a/	4.e\	.	.	.	.
8ryy	8Gn\	.	.	.	.	.	.
=58	=58	=58	=58	=58	=58	=58	=58
4c#X/	4F#X\	4e/ 4a#X	4ryy	.	2.ryy	.	.
8F#\ 8c#	8ryy	8e/ 8a#	8ryy	.	.	.	.
8e/L	4F#\	4a#/	8g\L	.	.	.	.
8d/J	.	.	8f#X\J	.	.	.	.
8c#/	8F#\	8a#/	8e\	.	.	.	.
=59	=59	=59	=59	=59	=59	=59	=59
4B/	4.B\	4.b/	4d\	.	2.ryy	.	.
8c#X/	.	.	8e\	.	.	.	.
4d/	4B\	4.b/	4.f#X\	.	.	.	.
8ryy	8An\	.	.	.	.	.	.
*v	*v	*	*	*	*	*	*
=60	=60	=60	=60	=60	=60	=60
4G#X\ 4d	4b/	4fn\	.	2.ryy	.	.
8G#\ 8d	8f/ 8b	8ryy	.	.	.	.
4G#\ 4d	4b/	4e\	.	.	.	.
8G#\ 8d	8cc/	8e\	.	.	.	.
=61	=61	=61	=61	=61	=61	=61
4.G#X\ 4.d	4.b/	4.e\	.	2.ryy	.	.
4.A\ 4.c	4.e/ 4.a	4ryy	.	.	.	.
.	.	8ryy	.	.	.	.
*	*v	*v	*	*	*	*
!!LO:LB:g=original
=62	=62	=62	=62	=62	=62
4F#X\ 4c	4e-X/ 4a	.	2.ryy	.	.
8F#\ 8c	8e-/ 8a	.	.	.	.
4F#\ 4c	4d/ 4a	.	.	.	.
8F#\ 8c	8d/ 8b	.	.	.	.
=63	=63	=63	=63	=63	=63
4.F#X\ 4.c	4.d/ 4.a	.	2.ryy	.	.
4.G\ 4.B	4.d/ 4.g	.	.	.	.
=64	=64	=64	=64	=64	=64
*	*^	*	*	*	*
4F#X\ 4B	4d#X/ 4b	4.ryy	.	2.ryy	.	.
8F#\ 8B	8d#/ 8b	.	.	.	.	.
4F#\ 4c#X	8a#X/L	4e\	.	.	.	.
.	8g#X/J	.	.	.	.	.
8F#\ 8c#	8f#X/	8e\	.	.	.	.
=65	=65	=65	=65	=65	=65	=65
4.BB\ 4.B	4.d#X/ 4.f#X	4.ryy	.	2.ryy	.	.
4.BB\ 4.B	4.d#/	4.d#\	.	.	.	.
=66	=66	=66	=66	=66	=66	=66
4F#X\ 4B	4d#X/ 4b	4.ryy	.	2.ryy	.	.
8F#\ 8B	8d#/ 8b	.	.	.	.	.
4F#\ 4c#X	8a#X/L	4e\	.	.	.	.
.	8g#X/J	.	.	.	.	.
8F#\ 8c#	8f#X/	8e\	.	.	.	.
*	*v	*v	*	*	*	*
=67	=67	=67	=67	=67	=67
*^	*	*	*	*	*
4B/	4B\	4.d#X/ 4.f#X	.	2.ryy	.	.
8ryy	8ryy	.	.	.	.	.
4A\ 4cn	4ryy	4dn/ 4f#	.	.	.	.
8ryy	8ryy	8ryy	.	.	.	.
*v	*v	*	*	*	*	*
=68	=68	=68	=68	=68	=68
4G\ 4B	4d/	.	2.ryy	.	.
8G\ 8B	8d/ 8g	.	.	.	.
4G\ 4c	4e/ 4b	.	.	.	.
8G\ 8c	8f#X/ 8a	.	.	.	.
!!LO:LB:g=original
=69	=69	=69	=69	=69	=69
*^	*^	*	*	*	*
4.B/	4.G\	4.g/	4.g\	.	2.ryy	.	.
4.D\ 4.d	4.ryy	4.a/	4.f#X\	.	.	.	.
*v	*v	*	*	*	*	*	*
*	*v	*v	*	*	*	*
=70	=70	=70	=70	=70	=70
4G\ 4d	4g/ 4b	.	2.ryy	.	.
8G\ 8d#X	8g/ 8b	.	.	.	.
4G\ 4e	4g/ 4cc	.	.	.	.
8G\ 8dn	8g/ 8b	.	.	.	.
=71	=71	=71	=71	=71	=71
*	*^	*	*	*	*
4.G\ 4.fn	4.g/ 4.dd	4.ryy	.	2.ryy	.	.
4.c\ 4.e	4cc/	4.g\	.	.	.	.
.	8b/	.	.	.	.	.
=72	=72	=72	=72	=72	=72	=72
*^	*	*	*	*	*	*
4d/	4c\	4f#X/ 4a	2.ryy	.	2.ryy	.	.
8d/	8c\	8f#/ 8a	.	.	.	.	.
4d/	8c\L	8f#/L 8a	.	.	.	.	.
.	8B\J	8g/J 8b	.	.	.	.	.
8d/	8A\	8a\ 8cc	.	.	.	.	.
=73	=73	=73	=73	=73	=73	=73	=73
4G#X\ 4fn	4.ryy	4b\ 4dd	4.ryy	.	2.ryy	.	.
8A\ 8e	.	8a\ 8cc	.	.	.	.	.
4d/	4.C\	4b/	4e\	.	.	.	.
8c/	.	8a/	8e\	.	.	.	.
=74	=74	=74	=74	=74	=74	=74	=74
4B/	4D\	4g/	4d\	.	2.ryy	.	.
8B-X/	8D\	8c#X/ 8g	8ryy	.	.	.	.
4.A/	4.D\	8f#X/L	4.cn\	.	.	.	.
.	.	8e/	.	.	.	.	.
.	.	8f#/J	.	.	.	.	.
!!LO:LB:g=original
=75	=75	=75	=75	=75	=75	=75	=75
4GG/ 4G	4ryy	4B/ 4g	4ryy	.	2.ryy	.	.
!	!	!LO:TX:a:t=Organ	!	!	!	!	!
8B/	[8G\	[8g/	8d\	.	.	.	.
4c/	4.G\_	4.g/_	4e-X\	.	.	.	.
8c#X/	.	.	8en\	.	.	.	.
=76	=76	=76	=76	=76	=76	=76	=76
4d/	2.G\]	2.g/]	4f\	.	2.ryy	.	.
8c#X/	.	.	8e\	.	.	.	.
4d/	.	.	4f\	.	.	.	.
8B/	.	.	8d\	.	.	.	.
*v	*v	*	*	*	*	*	*
*	*v	*v	*	*	*	*
=77	=77	=77	=77	=77	=77
4C\ 4cn	4c/ 4e	f	2.ryy	.	.
8C\ 8c	8c/ 8e	.	.	.	.
4C\ 4c	4d/ 4f	.	.	.	.
8C\ 8c	8d#X/ 8f#X	.	.	.	.
=78	=78	=78	=78	=78	=78
4.C\ 4.c	4.e/ 4.g	.	2.ryy	.	.
4.C\ 4.c	4.e/ 4.g	.	.	.	.
=79	=79	=79	=79	=79	=79
4C\ 4c	4e/ 4g	.	2.ryy	.	.
8C\ 8c	8e/ 8g	.	.	.	.
4C\ 4c	4f/ 4a	.	.	.	.
8C\ 8c	8d/ 8b	.	.	.	.
=80	=80	=80	=80	=80	=80
4.C\ 4.c	4.e/ 4.cc	.	2.ryy	.	.
4.C\ 4.c	4.e/ 4.cc	.	.	.	.
=81	=81	=81	=81	=81	=81
4G\ 4d	4f/ 4cc	.	2.ryy	.	.
8G\ 8d	8f/ 8b	.	.	.	.
4G\ 4c	4f/ 4a	.	.	.	.
8G\ 8B	8f/ 8g	.	.	.	.
!!LO:LB:g=original
=82	=82	=82	=82	=82	=82
*	*^	*	*	*	*
4.C\ 4.c	4.e/ 4.g	4.ryy	.	2.ryy	.	.
4.C\ 4.c	4.e/	4.e\	.	.	.	.
=83	=83	=83	=83	=83	=83	=83
4F\ 4c	4d/ 4a	4.ryy	.	2.ryy	.	.
8F\ 8c	8d/ 8a	.	.	.	.	.
4.F\ 4.B	4b/	4d#X\	.	.	.	.
.	8a/	8ryy	.	.	.	.
*	*v	*v	*	*	*	*
=84	=84	=84	=84	=84	=84
2.E\ 2.B	2.e/ 2.g#X	.	2.ryy	.	.
=85	=85	=85	=85	=85	=85
4G\ 4B	4d/ 4gn	.	2.ryy	.	.
8G\ 8B	8d/ 8g	.	.	.	.
4G\ 4d	4f/ 4b	.	.	.	.
8G\ 8c	8f/ 8a	.	.	.	.
=86	=86	=86	=86	=86	=86
4.G\ 4.c	4.f/ 4.a	.	2.ryy	.	.
4.G\ 4.B	4.f/ 4.g	.	.	.	.
=87	=87	=87	=87	=87	=87
4G\ 4d	4f/ 4b	.	2.ryy	.	.
8G\ 8d	8f/ 8b	.	.	.	.
4G\ 4B	4f/ 4dd	.	.	.	.
8G\ 8c	8f/ 8cc	.	.	.	.
=88	=88	=88	=88	=88	=88
4.G\ 4.d	4.f/ 4.cc	.	2.ryy	.	.
4.G\ 4.d	4.f/ 4.b	.	.	.	.
!!LO:PB:g=original
=89	=89	=89	=89	=89	=89
4C\ 4c	4c/ 4e	.	2.ryy	.	.
8C\ 8c	8c/ 8e	.	.	.	.
4C\ 4c	4d/ 4f	.	.	.	.
8C\ 8c	8d#X/ 8f#X	.	.	.	.
=90	=90	=90	=90	=90	=90
4.C\ 4.c	4.e/ 4.g	.	2.ryy	.	.
4.C\ 4.c	4.e/ 4.g	.	.	.	.
=91	=91	=91	=91	=91	=91
4C\ 4c	4e/ 4g	.	2.ryy	.	.
8C\ 8c	8e/ 8g	.	.	.	.
4C\ 4c	4f/ 4a	.	.	.	.
8C\ 8c	8d/ 8b	.	.	.	.
=92	=92	=92	=92	=92	=92
4.C\ 4.c	4.e/ 4.cc	.	2.ryy	.	.
4.C\ 4.c	4.e/ 4.cc	.	.	.	.
=93	=93	=93	=93	=93	=93
4A\ 4c	4f/ 4dd	.	2.ryy	.	.
8A\ 8c	8f/ 8cc	.	.	.	.
4G\ 4c	4f/ 4b	.	.	.	.
8F\ 8c	8f/ 8a	.	.	.	.
=94	=94	=94	=94	=94	=94
*	*^	*	*	*	*
4.E\ [4.c	4.g/	[4.g\	.	2.ryy	.	.
4F\ 4c]	4g/] 4b	4.ryy	.	.	.	.
8F\ 8c	8f/ 8a	.	.	.	.	.
=95	=95	=95	=95	=95	=95	=95
4G\ 4c	4e/ 4g	4ryy	.	2.ryy	.	.
8G\ 8e	8cc/	8g\	.	.	.	.
4.G\ 4.f	8b/L	4.g\	.	.	.	.
.	8a/	.	.	.	.	.
.	8b/J	.	.	.	.	.
!!LO:LB:g=original
=96	=96	=96	=96	=96	=96	=96
2.c\ 2.e	2.cc/	2.g\	.	2.ryy	.	.
*	*v	*v	*	*	*	*
=97	=97	=97	=97	=97	=97
4.F\ 4.f	4.a/ 4.cc	ff	2.ryy	.	.
4.F\ 4.f	4.a/ 4.cc	.	.	.	.
=98	=98	=98	=98	=98	=98
4.G\ 4.e	4.g/ 4.cc	.	2.ryy	.	.
4.G\ 4.e	4.g/ 4.cc	.	.	.	.
=99	=99	=99	=99	=99	=99
2.A-X\ 2.e-X	2.f#X/ 2.cc	.	2.ryy	.	.
=100	=100	=100	=100	=100	=100
4.A-X\ 4.c	4.e-X/ 4.f#X	.	2.ryy	.	.
4r	4r	.	.	.	.
8r	8r	.	.	.	.
=101	=101	=101	=101	=101	=101
!	!	!LO:HP:a	!	!	!
2.G\ 2.c	2.en/ 2.g	<	2.ryy	.	.
=102	=102	=102	=102	=102	=102
2.G\ 2.e	2.g/ 2.cc	[[	2.ryy	.	.
=103	=103	=103	=103	=103	=103
*	*^	*	*	*	*
2.F\ 2.d	2.cc/	2.a-X\	.	2.ryy	.	.
!!LO:LB:g=original
=104	=104	=104	=104	=104	=104	=104
2.G\ 2.d	2b/	4.g\	.	2.ryy	.	.
.	.	4.f\	.	.	.	.
.	4ryy	.	.	.	.	.
*	*v	*v	*	*	*	*
=105	=105	=105	=105	=105	=105
*^	*	*	*	*	*
2.c/	2.C;\	2.e;/ 2.cc	.	2.ryy	.	.
*v	*v	*	*	*	*	*
=106	=106	=106	=106	=106	=106
!	!LO:TX:a:t=Organ.	!	!	!	!
[2.C\ 2.B-X	2.e/ 2.g [2.cc	.	2.ryy	.	.
=107	=107	=107	=107	=107	=107
2.C\_ 2.A	2.e-X/ 2.g-X 2.cc_	.	2.ryy	.	.
=108	=108	=108	=108	=108	=108
2.C\_ 2.A-X	2.d/ 2.f 2.cc_	.	2.ryy	.	.
=109	=109	=109	=109	=109	=109
2.C\] 2.G	2.c/ 2.e 2.cc]	.	2.ryy	.	.
=110	=110	=110	=110	=110	=110
*	*^	*	*	*	*
2.FF#X/ 2.D#X	4.b/	2.c\	.	2.ryy	.	.
.	4.a/	.	.	.	.	.
*	*v	*v	*	*	*	*
=111	=111	=111	=111	=111	=111
[2.GG/ [2.E	[2.c/ [2.g	.	2.ryy	.	.
=112	=112	=112	=112	=112	=112
*^	*	*	*	*	*
4E/]	2.GG\]	4c/] 4g]	.	2.ryy	.	.
8C#X/	.	8B-X/ 8e	.	.	.	.
4D/	.	4A/ 4f	.	.	.	.
8F/	.	8Bn/ 8d	.	.	.	.
!!LO:LB:g=original
=113	=113	=113	=113	=113	=113	=113
*	*	*^	*	*	*	*
!	!	!	!LO:TX:t=P:2\left:problem	!	!	!	!
2.E/	2.C\	2.c/	2.c\	.	2.ryy	.	.
*v	*v	*	*	*	*	*	*
*	*v	*v	*	*	*	*
=114	=114	=114	=114	=114	=114
2.FF/ 2.F	2.c/ 2.f 2.a 2.cc	.	2.ryy	.	.
=115	=115	=115	=115	=115	=115
*^	*	*	*	*	*
!	!	!LO:TX:b:t=Skończyłem dnia I. Listopada w dzień Wszystkich Swiętych\nroku 1853.\nWilhelm Troschel.	!	!	!	!
2.C/ 2.G	2.CC;\	2.c;/ 2.e 2.g 2.cc	.	2.ryy	.	.
*v	*v	*	*	*	*	*
==	==	==	==	==	==
*-	*-	*-	*-	*-	*-
!!!system-decoration: s1{s2,s3}
!!!RDF**kern: > = above
!!!RDF**kern: < = below
!!!ENC: Marcin Jachim
!!!END: 2021-05-27
!!!YEC: Copyright 2022 Narodowy Instytut Fryderyka Chopina (https://polishscores.org)
!!!YEM: License CC-BY-4.0 (https://creativecommons.org/licenses/by/4.0)
